Newaita-dark/actions/22/distribute-horizontal-equal.svg

<?xml version="1.0" encoding="UTF-8"?>
<svg xmlns="http://www.w3.org/2000/svg" xmlns:xlink="http://www.w3.org/1999/xlink" width="22pt" height="22pt" viewBox="0 0 22 22" version="1.1">
<g id="surface1">
<path style=" stroke:none;fill-rule:evenodd;fill:rgb(14.901961%,77.64706%,85.490197%);fill-opacity:1;" d="M 4.394531 1.535156 C 4.222656 1.535156 4.078125 1.679688 4.078125 1.851562 L 4.078125 5.65625 C 4.078125 5.894531 4.335938 6.050781 4.546875 5.933594 L 6.773438 4.03125 C 7.011719 3.835938 7.011719 3.675781 6.773438 3.476562 L 4.546875 1.574219 C 4.5 1.550781 4.449219 1.535156 4.394531 1.535156 Z M 4.394531 1.535156 "/>
<path style=" stroke:none;fill-rule:evenodd;fill:rgb(14.901961%,77.64706%,85.490197%);fill-opacity:1;" d="M 17.433594 1.535156 C 17.609375 1.535156 17.75 1.679688 17.75 1.851562 L 17.75 5.65625 C 17.75 5.894531 17.492188 6.050781 17.28125 5.933594 L 15.058594 4.03125 C 14.820312 3.835938 14.820312 3.675781 15.058594 3.476562 L 17.28125 1.574219 C 17.328125 1.550781 17.382812 1.535156 17.433594 1.535156 Z M 17.433594 1.535156 "/>
<path style=" stroke:none;fill-rule:nonzero;fill:rgb(74.117649%,74.117649%,74.117649%);fill-opacity:1;" d="M 8.382812 3.808594 C 8.757812 3.808594 9.0625 4.113281 9.0625 4.492188 L 9.0625 7.921875 C 9.085938 7.988281 9.097656 8.058594 9.097656 8.128906 L 9.097656 14.042969 C 9.097656 14.117188 9.085938 14.1875 9.0625 14.25 L 9.0625 19.5 C 9.0625 19.878906 8.757812 20.183594 8.382812 20.183594 C 8.003906 20.183594 7.699219 19.878906 7.699219 19.5 L 7.699219 14.726562 L 2.46875 14.726562 C 2.089844 14.726562 1.785156 14.421875 1.785156 14.042969 L 1.785156 8.128906 C 1.785156 7.753906 2.089844 7.449219 2.46875 7.449219 L 7.699219 7.449219 L 7.699219 4.492188 C 7.699219 4.113281 8.003906 3.808594 8.382812 3.808594 Z M 7.699219 8.8125 L 3.605469 8.8125 C 3.355469 8.8125 3.152344 9.015625 3.152344 9.269531 L 3.152344 12.90625 C 3.152344 13.15625 3.355469 13.359375 3.605469 13.359375 L 7.699219 13.359375 Z M 7.699219 8.8125 "/>
<path style=" stroke:none;fill-rule:nonzero;fill:rgb(74.117649%,74.117649%,74.117649%);fill-opacity:1;" d="M 13.417969 3.808594 C 13.039062 3.808594 12.734375 4.113281 12.734375 4.492188 L 12.734375 7.921875 C 12.714844 7.988281 12.703125 8.058594 12.703125 8.128906 L 12.703125 17.226562 C 12.703125 17.300781 12.714844 17.371094 12.734375 17.433594 L 12.734375 19.5 C 12.734375 19.878906 13.039062 20.183594 13.417969 20.183594 C 13.792969 20.183594 14.097656 19.878906 14.097656 19.5 L 14.097656 17.910156 L 19.328125 17.910156 C 19.707031 17.910156 20.011719 17.605469 20.011719 17.226562 L 20.011719 8.128906 C 20.011719 7.753906 19.707031 7.449219 19.328125 7.449219 L 14.097656 7.449219 L 14.097656 4.492188 C 14.097656 4.113281 13.792969 3.808594 13.417969 3.808594 Z M 14.097656 8.8125 L 18.191406 8.8125 C 18.445312 8.8125 18.648438 9.015625 18.648438 9.269531 L 18.648438 16.089844 C 18.648438 16.339844 18.445312 16.539062 18.191406 16.542969 L 14.097656 16.542969 Z M 14.097656 8.8125 "/>
</g>
</svg>

<svg xmlns="http://www.w3.org/2000/svg" width="22pt" height="22pt" viewBox="0 0 22 22"><path d="M4.395 1.535a.32.32 0 0 0-.317.317v3.804c0 .239.258.395.469.278L6.773 4.03c.239-.195.239-.355 0-.554L4.547 1.574a.34.34 0 0 0-.152-.039zm0 0M17.434 1.535c.175 0 .316.145.316.317v3.804a.317.317 0 0 1-.469.278L15.06 4.03c-.239-.195-.239-.355 0-.554l2.222-1.903a.353.353 0 0 1 .153-.039zm0 0" fill-rule="evenodd" fill="#26c6da"/><path d="M8.383 3.809c.375 0 .68.304.68.683v3.43a.623.623 0 0 1 .035.207v5.914a.59.59 0 0 1-.036.207v5.25a.681.681 0 1 1-1.363 0v-4.773H2.47a.682.682 0 0 1-.684-.684V8.129c0-.375.305-.68.684-.68h5.23V4.492c0-.379.305-.683.684-.683zm-.684 5.004H3.605a.454.454 0 0 0-.453.457v3.636c0 .25.203.453.453.453H7.7zm0 0M13.418 3.809a.682.682 0 0 0-.684.683v3.43a.738.738 0 0 0-.03.207v9.098c0 .074.01.144.03.207V19.5a.682.682 0 1 0 1.364 0v-1.59h5.23a.682.682 0 0 0 .684-.683V8.129a.681.681 0 0 0-.684-.68h-5.23V4.492a.681.681 0 0 0-.68-.683zm.68 5.004h4.093c.254 0 .457.203.457.457v6.82c0 .25-.203.45-.457.453h-4.093zm0 0" fill="#bdbdbd"/></svg>
